**kern	**kern
*part1	*part1
*staff2	*staff1
*I"Piano	*
*I'Pno.	*
*clefF4	*clefG2
*k[]	*k[]
*M4/4	*M4/4
=1	=1
1r	8eL 8g 8ee
.	8b 8ff#X
.	8cc 8gg
.	8bJ 8ff#
.	8eeL 8gg
.	8b
.	8a 8ff#
.	8gJ 8ee
=2	=2
1r	1B 1f#X 1dd#X
==3	==3
*^	*
4B	2G	8bL
.	.	16r
.	.	16ddJk
4B-X	.	8dddL
.	.	16r
.	.	16dddJk
4A	2F#X	8ccc#XL
.	.	16r
.	.	16ccc#Jk
[4d	.	8cccnL
.	.	16r
.	.	16cccJk
=4	=4	=4
4d]	4G	8bbnL
.	.	16r
.	.	16bbJk
2.d	2.G	2.bb-X
*v	*v	*
!!linebreak:original
==5	==5
*k[b-e-a-]	*k[b-e-a-]
8E-L	8ggL
*	*^
8E-	8bb-	8ee-L 8gg
8E-	8bb-	8ee- 8gg
8E-J	8bb-J	8ee-J 8gg
8E-L	8bb-L	8ee-L 8gg
8E-	8bb-J	8ee-J 8gg
8D	16aanLL	4ff
.	16bb-	.
8DJ	16ccc	.
.	16bb-JJ	.
*	*v	*v
=6	=6
8C	8ee- 8eee-
8r	8r
*	*^
2C	2gg	2ee-
8BB-	16ff#XLL	8dd
.	16gg	.
8r	16aa-	8r
.	16ggJJ	.
*	*v	*v
=7	=7
8AA-	8cc 8ccc
8r	8r
*	*^
2A-	2ee-	2cc
8G	16ddLL	8b-
.	16ee-	.
8r	16ff	8r
.	16ee-JJ	.
*	*v	*v
=8	=8
1F	1b- 1dd 1aa-
!!linebreak:original
==9	==9
*k[f#]	*k[f#]
*M2/4	*M2/4
*	*^
2E	2b	8gL
.	.	8B
.	.	8g
.	.	8BJ
=10	=10	=10
4D	8.aL	4fn
.	16g#XJk	.
4C	8.bL	4e
.	16aJk	.
*	*v	*v
==11	==11
*k[f#c#g#d#]	*k[f#c#g#d#]
*M4/4	*M4/4
*	*^
4r	4r	4b
*^	*	*
4B	4G#	4ee	4b
4d#	4F#	4ff#	4b
4e	4E	4gg#	4b
=12	=12	=12	=12
4.g#	2A	4.bb	2cc#
8f#	.	8aa	.
4e	4B	4gg#	4b
4d#	4B	4ff#	4b
*v	*v	*	*
*	*v	*v
==13	==13
*k[f#c#g#d#]	*k[f#c#g#d#]
*M2/4	*M2/4
16EE 16BB	16A 16d# 16f#
=14	=14
8.EEL 8.BB	8.G#L 8.e
16CnJk 16Gn	16cnJk 16e
8.CL 8.G	8.cL 8.e
16DDnJk 16AAn	16cJk 16fn
!!linebreak:original
=15	=15
8.DDnL 8.AA	8.cnL 8.fn
16GGnJk 16Dn	16BJk 16gn
8.GGL 8.D	8.BL 8.g
16CCnJk 16GG	16eJk 16ccn
=16	=16
8.CCnL 8.GGn	8.eL 8.ccn
16CnJk 16Gn	16eJk 16b
8.CL 8.G	8.eL 8.b
16CCJk 16GG	16eJk 16a#X
=17	=17
8.CCnL 8.GGn	8.eL 8.a#X
16BBJk 16F#	16d#Jk 16b
8.BB 8.F#	8.d# 8.b
==18	==18
*k[]	*k[]
*M3/4	*M3/4
*	*^
2FF 2C	2a	2A 2c
4GG 4D	8.gL	4G 4B
.	16dJk	.
*	*v	*v
=19	=19
*^	*
2F 2A	2DD 2AA	2f
4E 4G#X	4EE 4BB	8.eL
.	.	16BJk
!!linebreak:original
=20	=20	=20
2A	2AA 2E	8dL
.	.	8cJ
.	.	8BL
.	.	8AJ
8GL	4C 4E-X	4r
8F#XJ	.	.
=21	=21	=21
4.G	4BB 4D	2.r
.	4GG 4BB	.
8Fn	.	.
4E	4CC 4C	.
*v	*v	*
==22	==22
*M4/4	*M4/4
*^	*^
2E	2C	2g	2c
2F	2D	2a	2B
*v	*v	*	*
*	*v	*v
=23	=23
1E 1E	1c 1g
==	==
*-	*-
!!!system-decoration: {(s1,s2)}
